coreui/free/cil-view-quilt.svg

<svg viewBox="0 0 512 512" xmlns="http://www.w3.org/2000/svg"><path d="M16 64v384h480V64Zm448 176H192V96h272Zm-272 32h120v144H192ZM48 96h112v320H48Zm296 320V272h120v144Z"/></svg>

<svg xmlns="http://www.w3.org/2000/svg" viewBox="0 0 512 512">
  <path fill="var(--ci-primary-color, currentColor)" d="M16,64V448H496V64ZM464,240H192V96H464ZM192,272H312V416H192ZM48,96H160V416H48ZM344,416V272H464V416Z" class="ci-primary"/>
</svg>
